Papirus/22x22/panel/whatsie-tray-attention.svg

<?xml version="1.0" encoding="UTF-8" standalone="no"?>
<svg xmlns:dc="http://purl.org/dc/elements/1.1/" xmlns:cc="http://creativecommons.org/ns#" xmlns:rdf="http://www.w3.org/1999/02/22-rdf-syntax-ns#" xmlns:svg="http://www.w3.org/2000/svg" xmlns="http://www.w3.org/2000/svg" version="1.0" width="22" height="22" id="svg2817">
    <metadata id="metadata57">
        <rdf:RDF>
            <cc:Work rdf:about="">
                <dc:format>
                    image/svg+xml
                </dc:format>
                <dc:type rdf:resource="http://purl.org/dc/dcmitype/StillImage"/>
                <dc:title/>
            </cc:Work>
        </rdf:RDF>
    </metadata>
    <path id="path4138" d="M 11 3 C 10.807366 3 10.616882 3.0101785 10.427734 3.0234375 C 10.403994 3.0251875 10.381142 3.0253638 10.357422 3.0273438 C 7.4995898 3.2528681 5.0782236 4.9702147 3.8554688 7.4023438 C 3.7763538 7.5597958 3.6957745 7.7176064 3.6269531 7.8808594 C 3.2524477 8.7265614 3.0486652 9.6228768 3.0117188 10.5625 C 3.0100988 10.59285 3.0091025 10.623847 3.0078125 10.654297 C 3.0053425 10.744057 3.0013531 10.833308 3.0019531 10.923828 C 3.0017229 10.949208 3 10.974559 3 11 C 3 11.930217 3.1657215 12.819343 3.4550781 13.648438 C 3.5224786 13.86356 3.612263 14.083062 3.6933594 14.300781 A 3 3 0 0 1 5 14 A 3 3 0 0 1 8 17 A 3 3 0 0 1 7.625 18.451172 C 7.9437029 18.46435 8.2527196 18.545084 8.78125 18.710938 C 9.3057815 18.875535 9.9027701 18.963804 10.578125 18.988281 C 10.606375 18.989681 10.635732 18.991087 10.664062 18.992188 C 10.756493 18.994788 10.845931 19 10.941406 19 C 10.949206 19 10.955141 19.000057 10.962891 19 C 10.975201 19.000055 10.98767 19 11 19 C 11.223394 19 11.443452 18.988483 11.662109 18.970703 C 13.639901 18.830051 15.22846 18.099235 16.658203 16.671875 C 17.836157 15.495882 18.567001 14.042571 18.855469 12.523438 C 18.882049 12.384602 18.902525 12.244847 18.921875 12.103516 C 18.933575 12.016756 18.946258 11.930791 18.955078 11.84375 C 18.974468 11.65708 18.985748 11.467688 18.992188 11.277344 C 18.993588 11.229374 18.995594 11.180804 18.996094 11.132812 C 18.996788 11.088119 19 11.044853 19 11 C 19 6.6419716 15.549631 3.1222337 11.220703 3.0058594 C 11.187117 3.0048889 11.152768 3.0044377 11.119141 3.0039062 C 11.079152 3.0033234 11.040136 3.0000002 11 3 z M 6 9 A 2 2 0 0 1 8 11 A 2 2 0 0 1 6 13 A 2 2 0 0 1 4 11 A 2 2 0 0 1 6 9 z M 11 9 A 2 2 0 0 1 13 11 A 2 2 0 0 1 11 13 A 2 2 0 0 1 9 11 A 2 2 0 0 1 11 9 z M 16 9 A 2 2 0 0 1 18 11 A 2 2 0 0 1 16 13 A 2 2 0 0 1 14 11 A 2 2 0 0 1 16 9 z " style="opacity:1000002;fill:#ffffff;fill-opacity:1"/>
    <circle style="opacity:1;fill:#5294e2;fill-opacity:1;stroke:none;stroke-width:3;stroke-linecap:round;stroke-linejoin:round;stroke-miterlimit:4;stroke-dasharray:none;stroke-opacity:1" id="circle4375" cx="5" cy="17" r="2"/>
</svg>

<?xml version="1.0" encoding="UTF-8" standalone="no"?>
<svg id="svg2817" xmlns:rdf="http://www.w3.org/1999/02/22-rdf-syntax-ns#" xmlns="http://www.w3.org/2000/svg" height="22" width="22" version="1.0" xmlns:cc="http://creativecommons.org/ns#" xmlns:dc="http://purl.org/dc/elements/1.1/">
 <metadata id="metadata57">
  <rdf:RDF>
   <cc:Work rdf:about="">
    <dc:format>image/svg+xml</dc:format>
    <dc:type rdf:resource="http://purl.org/dc/dcmitype/StillImage"/>
    <dc:title/>
   </cc:Work>
  </rdf:RDF>
 </metadata>
 <path id="path4138" opacity="1e6" d="m11 3c-0.193 0-0.383 0.0102-0.572 0.0234-0.024 0.0018-0.047 0.002-0.071 0.0039-2.8574 0.2256-5.2788 1.9429-6.5015 4.375-0.0791 0.1575-0.1597 0.3153-0.2285 0.4786-0.3746 0.8457-0.5783 1.742-0.6153 2.6811-0.0016 0.031-0.0026 0.062-0.0039 0.092-0.0025 0.09-0.0064 0.179-0.0058 0.27-0.0003 0.025-0.002 0.051-0.002 0.076 0 0.93 0.1657 1.819 0.4551 2.648 0.0674 0.216 0.1572 0.435 0.2383 0.653a3 3 0 0 1 1.3066 -0.301 3 3 0 0 1 3 3 3 3 0 0 1 -0.375 1.451c0.3187 0.013 0.6277 0.094 1.1562 0.26 0.5246 0.165 1.1216 0.253 1.7968 0.277 0.028 0.002 0.058 0.003 0.086 0.004 0.092 0.003 0.182 0.008 0.277 0.008h0.022 0.037c0.223 0 0.443-0.012 0.662-0.029 1.978-0.141 3.566-0.872 4.996-2.299 1.178-1.176 1.909-2.629 2.197-4.149 0.027-0.138 0.048-0.278 0.067-0.419 0.012-0.087 0.024-0.173 0.033-0.26 0.019-0.187 0.031-0.376 0.037-0.567 0.002-0.048 0.004-0.096 0.004-0.144 0.001-0.045 0.004-0.088 0.004-0.133 0-4.358-3.45-7.8778-7.779-7.9941-0.034-0.001-0.068-0.0015-0.102-0.002-0.04-0.0006-0.079-0.0039-0.119-0.0039zm-5 6a2 2 0 0 1 2 2 2 2 0 0 1 -2 2 2 2 0 0 1 -2 -2 2 2 0 0 1 2 -2zm5 0a2 2 0 0 1 2 2 2 2 0 0 1 -2 2 2 2 0 0 1 -2 -2 2 2 0 0 1 2 -2zm5 0a2 2 0 0 1 2 2 2 2 0 0 1 -2 2 2 2 0 0 1 -2 -2 2 2 0 0 1 2 -2z" fill="#fff"/>
 <circle id="circle4375" cx="5" cy="17" r="2" fill="#5294e2"/>
</svg>
